X:140
T: ZU DES LEBENS FREUDEN SCHUF UNS DIE NATUR
N: F0264
O: Europa, Mitteleuropa, Deutschland
R: Jugend - Lied, Belehrung, Natur
M: 6/8
L: 1/16
K: G
 | B4B2B4c2 | d6B4z2 |
c4B2c4d2 | B6z6 |
B4B2c3Bc2 | d6A6 |
A4d2^c3B=c2 | d6z6 |
A4A2B4B2 | c6A6 |
G4G2A3GA2 | B6z6 |
c4c2B4B2 | e4A2A6 |
A4B2c4d2 | B6z6 |
c4c2B4B2 | e8d2c2 |
B4B2c4A2 | G6z6

@@@ Tune index: 5571
